symbols/web/rtt/materialsymbolsrounded/rtt_wght600gradN25_40px.svg

<svg xmlns="http://www.w3.org/2000/svg" height="40" width="40"><path d="M17.875 35.167q-.833 0-1.417-.584-.583-.583-.583-1.458 0-.833.604-1.437.604-.605 1.438-.605h2.166l3.5-22.208h-4.625l-1.041 6.292q-.125.791-.688 1.271-.562.479-1.396.479-.916 0-1.562-.729-.646-.73-.479-1.688l1.125-6.75q.208-1.25 1.208-2.104 1-.854 2.292-.854H33.25q1.625 0 2.688 1.229Q37 7.25 36.75 8.875l-1.042 6.292q-.125.791-.708 1.271-.583.479-1.375.479-.958 0-1.583-.729-.625-.73-.459-1.688l.875-5.625h-4.625l-3.541 22.208h1.541q.875 0 1.459.605.583.604.583 1.437 0 .875-.583 1.458-.584.584-1.459.584Zm-10.25-24q-.625 0-1.042-.417-.416-.417-.416-1.042t.416-1.041Q7 8.25 7.625 8.25h4.833l-.5 2.917ZM6.542 18q-.625 0-1.063-.438-.437-.437-.437-1.062t.416-1.042q.417-.416 1.084-.416h4.833L10.917 18ZM4.375 31.583q-.667 0-1.063-.416-.395-.417-.395-1.042t.416-1.042q.417-.416 1.042-.416h8.875l-.458 2.916Zm1.083-6.791q-.625 0-1.041-.417Q4 23.958 4 23.333t.417-1.062q.416-.438 1.041-.438h8.917l-.5 2.959Z"/></svg>

<svg xmlns="http://www.w3.org/2000/svg" height="40" width="40"><path d="M17.875 35.167Q17.042 35.167 16.458 34.583Q15.875 34 15.875 33.125Q15.875 32.292 16.479 31.688Q17.083 31.083 17.917 31.083H20.083L23.583 8.875H18.958Q18.958 8.875 18.958 8.875Q18.958 8.875 18.958 8.875L17.917 15.167Q17.792 15.958 17.229 16.438Q16.667 16.917 15.833 16.917Q14.917 16.917 14.271 16.188Q13.625 15.458 13.792 14.5L14.917 7.75Q15.125 6.5 16.125 5.646Q17.125 4.792 18.417 4.792H33.25Q34.875 4.792 35.938 6.021Q37 7.25 36.75 8.875L35.708 15.167Q35.583 15.958 35 16.438Q34.417 16.917 33.625 16.917Q32.667 16.917 32.042 16.188Q31.417 15.458 31.583 14.5L32.458 8.875Q32.458 8.875 32.458 8.875Q32.458 8.875 32.458 8.875H27.833L24.292 31.083H25.833Q26.708 31.083 27.292 31.688Q27.875 32.292 27.875 33.125Q27.875 34 27.292 34.583Q26.708 35.167 25.833 35.167ZM7.625 11.167Q7 11.167 6.583 10.75Q6.167 10.333 6.167 9.708Q6.167 9.083 6.583 8.667Q7 8.25 7.625 8.25H12.458L11.958 11.167ZM6.542 18Q5.917 18 5.479 17.562Q5.042 17.125 5.042 16.5Q5.042 15.875 5.458 15.458Q5.875 15.042 6.542 15.042H11.375L10.917 18ZM4.375 31.583Q3.708 31.583 3.312 31.167Q2.917 30.75 2.917 30.125Q2.917 29.5 3.333 29.083Q3.75 28.667 4.375 28.667H13.25L12.792 31.583ZM5.458 24.792Q4.833 24.792 4.417 24.375Q4 23.958 4 23.333Q4 22.708 4.417 22.271Q4.833 21.833 5.458 21.833H14.375L13.875 24.792Z"/></svg>
